X: 3
T: Christmas
Z: Nigel Gatherer
S: https://thesession.org/tunes/13244#setting23104
R: barndance
M: 4/4
L: 1/8
K: Amaj
E/F/G | A2 EA BEGB | cdcB A2 Bc | d2 cB cEAc | BEGB e2 d2 |
c2 AE CD E2 | FGAF d2 ed | c2 BA E2 G2 | A6 :|
cd |e2 cA Eefe | d2 BG Eded | c2 A2 dcBA | GBFB E2 E/F/G |
A2 EA BEBc | dcBA e3 d | c2 BA E2 G2 | A6 :|
